Flat-Remix-Dark/apps/scalable/goodvibes.svg

<svg xmlns="http://www.w3.org/2000/svg" xmlns:xlink="http://www.w3.org/1999/xlink" width="384pt" height="384pt" version="1.1" viewBox="0 0 384 384">
 <defs>
  <filter id="alpha" width="100%" height="100%" x="0%" y="0%" filterUnits="objectBoundingBox">
   <feColorMatrix in="SourceGraphic" type="matrix" values="0 0 0 0 1 0 0 0 0 1 0 0 0 0 1 0 0 0 1 0"/>
  </filter>
  <mask id="mask0">
   <g filter="url(#alpha)">
    <rect width="384" height="384" x="0" y="0" style="fill:rgb(0%,0%,0%);fill-opacity:0.2"/>
   </g>
  </mask>
  <clipPath id="clip1">
   <rect width="384" height="384" x="0" y="0"/>
  </clipPath>
  <g id="surface5" clip-path="url(#clip1)">
   <path style="fill:rgb(0%,0%,0%)" d="M 343.199219 66 L 40.800781 66 C 31.523438 66 24 73.386719 24 82.5 L 24 313.5 C 24 322.613281 31.523438 330 40.800781 330 L 343.199219 330 C 352.476562 330 360 322.613281 360 313.5 L 360 82.5 C 360 73.386719 352.476562 66 343.199219 66 Z M 343.199219 66"/>
  </g>
  <mask id="mask1">
   <g filter="url(#alpha)">
    <rect width="384" height="384" x="0" y="0" style="fill:rgb(0%,0%,0%);fill-opacity:0.2"/>
   </g>
  </mask>
  <clipPath id="clip2">
   <rect width="384" height="384" x="0" y="0"/>
  </clipPath>
  <g id="surface8" clip-path="url(#clip2)">
   <path style="fill:rgb(0%,0%,0%)" d="M 144 234 C 144 260.507812 122.507812 282 96 282 C 69.492188 282 48 260.507812 48 234 C 48 207.492188 69.492188 186 96 186 C 122.507812 186 144 207.492188 144 234 Z M 144 234"/>
  </g>
  <mask id="mask2">
   <g filter="url(#alpha)">
    <rect width="384" height="384" x="0" y="0" style="fill:rgb(0%,0%,0%);fill-opacity:0.2"/>
   </g>
  </mask>
  <clipPath id="clip3">
   <rect width="384" height="384" x="0" y="0"/>
  </clipPath>
  <g id="surface11" clip-path="url(#clip3)">
   <path style="fill:rgb(100%,100%,100%)" d="M 40.804688 60 C 31.496094 60 24 67.359375 24 76.5 L 24 82.5 C 24 73.359375 31.496094 66 40.804688 66 L 343.195312 66 C 352.503906 66 360 73.359375 360 82.5 L 360 76.5 C 360 67.359375 352.503906 60 343.195312 60 Z M 40.804688 60"/>
  </g>
 </defs>
 <g>
  <use mask="url(#mask0)" xlink:href="#surface5"/>
  <path style="fill:rgb(100%,78.431373%,19.215686%)" d="M 343.199219 60 L 40.800781 60 C 31.523438 60 24 67.386719 24 76.5 L 24 307.5 C 24 316.613281 31.523438 324 40.800781 324 L 343.199219 324 C 352.476562 324 360 316.613281 360 307.5 L 360 76.5 C 360 67.386719 352.476562 60 343.199219 60 Z M 343.199219 60"/>
  <use mask="url(#mask1)" xlink:href="#surface8"/>
  <path style="fill:rgb(99.215686%,49.411765%,0%)" d="M 144 228 C 144 254.507812 122.507812 276 96 276 C 69.492188 276 48 254.507812 48 228 C 48 201.492188 69.492188 180 96 180 C 122.507812 180 144 201.492188 144 228 Z M 144 228"/>
  <path style="fill:rgb(29.803922%,29.803922%,29.803922%)" d="M 48 84 L 336 84 L 336 144 L 48 144 Z M 48 84"/>
  <path style="fill:rgb(99.215686%,49.411765%,0%)" d="M 156 96 L 156 144 L 120 144 L 120 96 Z M 156 96"/>
  <path style="fill:rgb(29.803922%,29.803922%,29.803922%)" d="M 222 168 C 212.058594 168 204 176.058594 204 186 C 204 195.941406 212.058594 204 222 204 C 231.941406 204 240 195.941406 240 186 C 240 176.058594 231.941406 168 222 168 Z M 270 168 C 260.058594 168 252 176.058594 252 186 C 252 195.941406 260.058594 204 270 204 C 279.941406 204 288 195.941406 288 186 C 288 176.058594 279.941406 168 270 168 Z M 318 168 C 308.058594 168 300 176.058594 300 186 C 300 195.941406 308.058594 204 318 204 C 327.941406 204 336 195.941406 336 186 C 336 176.058594 327.941406 168 318 168 Z M 222 216 C 212.058594 216 204 224.058594 204 234 C 204 243.941406 212.058594 252 222 252 C 231.941406 252 240 243.941406 240 234 C 240 224.058594 231.941406 216 222 216 Z M 270 216 C 260.058594 216 252 224.058594 252 234 C 252 243.941406 260.058594 252 270 252 C 279.941406 252 288 243.941406 288 234 C 288 224.058594 279.941406 216 270 216 Z M 318 216 C 308.058594 216 300 224.058594 300 234 C 300 243.941406 308.058594 252 318 252 C 327.941406 252 336 243.941406 336 234 C 336 224.058594 327.941406 216 318 216 Z M 222 264 C 212.058594 264 204 272.058594 204 282 C 204 291.941406 212.058594 300 222 300 C 231.941406 300 240 291.941406 240 282 C 240 272.058594 231.941406 264 222 264 Z M 270 264 C 260.058594 264 252 272.058594 252 282 C 252 291.941406 260.058594 300 270 300 C 279.941406 300 288 291.941406 288 282 C 288 272.058594 279.941406 264 270 264 Z M 318 264 C 308.058594 264 300 272.058594 300 282 C 300 291.941406 308.058594 300 318 300 C 327.941406 300 336 291.941406 336 282 C 336 272.058594 327.941406 264 318 264 Z M 318 264"/>
  <use mask="url(#mask2)" xlink:href="#surface11"/>
 </g>
</svg>

<svg xmlns="http://www.w3.org/2000/svg" xmlns:xlink="http://www.w3.org/1999/xlink" width="384pt" height="384pt" version="1.1" viewBox="0 0 384 384">
 <defs>
  <filter id="alpha" width="100%" height="100%" x="0%" y="0%" filterUnits="objectBoundingBox">
   <feColorMatrix in="SourceGraphic" type="matrix" values="0 0 0 0 1 0 0 0 0 1 0 0 0 0 1 0 0 0 1 0"/>
  </filter>
  <mask id="mask0">
   <g filter="url(#alpha)">
    <rect width="384" height="384" x="0" y="0" style="fill:rgb(0%,0%,0%);fill-opacity:0.2"/>
   </g>
  </mask>
  <clipPath id="clip1">
   <rect width="384" height="384" x="0" y="0"/>
  </clipPath>
  <g id="surface5" clip-path="url(#clip1)">
   <path style="fill:rgb(0%,0%,0%)" d="M 343.199219 66 L 40.800781 66 C 31.523438 66 24 73.386719 24 82.5 L 24 313.5 C 24 322.613281 31.523438 330 40.800781 330 L 343.199219 330 C 352.476562 330 360 322.613281 360 313.5 L 360 82.5 C 360 73.386719 352.476562 66 343.199219 66 Z M 343.199219 66"/>
  </g>
  <mask id="mask2">
   <g filter="url(#alpha)">
    <rect width="384" height="384" x="0" y="0" style="fill:rgb(0%,0%,0%);fill-opacity:0.2"/>
   </g>
  </mask>
  <clipPath id="clip3">
   <rect width="384" height="384" x="0" y="0"/>
  </clipPath>
  <g id="surface11" clip-path="url(#clip3)">
   <path style="fill:rgb(100%,100%,100%)" d="M 40.804688 60 C 31.496094 60 24 67.359375 24 76.5 L 24 82.5 C 24 73.359375 31.496094 66 40.804688 66 L 343.195312 66 C 352.503906 66 360 73.359375 360 82.5 L 360 76.5 C 360 67.359375 352.503906 60 343.195312 60 Z M 40.804688 60"/>
  </g>
 </defs>
 <use width="100%" height="100%" x="0" y="0" mask="url(#mask0)" xlink:href="#surface5"/>
 <path d="M 343.19922,60 H 40.800781 C 31.523438,60 24,67.386719 24,76.5 v 231 c 0,9.11328 7.523438,16.5 16.800781,16.5 H 343.19922 C 352.47656,324 360,316.61328 360,307.5 V 76.5 C 360,67.386719 352.47656,60 343.19922,60 Z m 0,0" style="fill:#333333"/>
 <path d="M 144,235.49999 C 144,262.0078 122.50781,283.5 95.999998,283.5 69.492187,283.5 48,262.0078 48,235.49999 48,208.99219 69.492187,187.5 95.999998,187.5 122.50781,187.5 144,208.99219 144,235.49999 Z m 0,0"/>
 <path d="m 144,228 c 0,26.50781 -21.49219,48 -48,48 -26.507812,0 -48,-21.49219 -48,-48 0,-26.50781 21.492188,-48 48,-48 26.50781,0 48,21.49219 48,48 z m 0,0" style="fill:#fd7d00"/>
 <path d="m 48,84 h 288 v 60 H 48 Z m 0,0" style="fill:#f4f4f4"/>
 <path d="m 144.49453,96 v 48 H 131.50547 V 96 Z m 0,0" style="fill:#fd7d00"/>
 <path d="m 222,168 c -9.94141,0 -18,8.05859 -18,18 0,9.94141 8.05859,18 18,18 9.94141,0 18,-8.05859 18,-18 0,-9.94141 -8.05859,-18 -18,-18 z m 48,0 c -9.94141,0 -18,8.05859 -18,18 0,9.94141 8.05859,18 18,18 9.94141,0 18,-8.05859 18,-18 0,-9.94141 -8.05859,-18 -18,-18 z m 48,0 c -9.94141,0 -18,8.05859 -18,18 0,9.94141 8.05859,18 18,18 9.94141,0 18,-8.05859 18,-18 0,-9.94141 -8.05859,-18 -18,-18 z m -96,48 c -9.94141,0 -18,8.05859 -18,18 0,9.94141 8.05859,18 18,18 9.94141,0 18,-8.05859 18,-18 0,-9.94141 -8.05859,-18 -18,-18 z m 48,0 c -9.94141,0 -18,8.05859 -18,18 0,9.94141 8.05859,18 18,18 9.94141,0 18,-8.05859 18,-18 0,-9.94141 -8.05859,-18 -18,-18 z m 48,0 c -9.94141,0 -18,8.05859 -18,18 0,9.94141 8.05859,18 18,18 9.94141,0 18,-8.05859 18,-18 0,-9.94141 -8.05859,-18 -18,-18 z m -96,48 c -9.94141,0 -18,8.05859 -18,18 0,9.94141 8.05859,18 18,18 9.94141,0 18,-8.05859 18,-18 0,-9.94141 -8.05859,-18 -18,-18 z m 48,0 c -9.94141,0 -18,8.05859 -18,18 0,9.94141 8.05859,18 18,18 9.94141,0 18,-8.05859 18,-18 0,-9.94141 -8.05859,-18 -18,-18 z m 48,0 c -9.94141,0 -18,8.05859 -18,18 0,9.94141 8.05859,18 18,18 9.94141,0 18,-8.05859 18,-18 0,-9.94141 -8.05859,-18 -18,-18 z m 0,0" style="fill:#f4f4f4"/>
 <use width="100%" height="100%" x="0" y="0" mask="url(#mask2)" xlink:href="#surface11"/>
 <path d="M 64 182 L 64 192 L 448 192 L 448 182 L 64 182 z" transform="scale(0.75)"/>
</svg>
